src/assets/svg/trashcan.svg

<svg fill="none" height="18" viewBox="0 0 17 18" width="17" xmlns="http://www.w3.org/2000/svg"><path d="m16.8888 4.20833c0 .46084-.3733.83334-.8333.83334h-15c-.459999 0-.833332-.3725-.833332-.83334 0-.46083.373333-.83333.833332-.83333h2.96585c.35917 0 .67665-.2284.79081-.57007l.26332-.79c.2275-.68166.86336-1.13993 1.58086-1.13993h3.79916c.7184 0 1.3542.45829 1.5808 1.13912l.2634.79163c.1133.34.4316.56925.7908.56925h2.965c.46 0 .8333.3725.8333.83333zm-2.25 2.52503-.5083 7.66664c-.1083 1.5333-1.3917 2.725-2.9167 2.725h-5.31663c-1.525 0-2.80834-1.1917-2.91667-2.7167l-.50832-7.67494c-.00833-.10834.03334-.2251.10834-.30843.08333-.08334.19166-.13326.30832-.13326h11.33336c.1166 0 .225.04992.3083.13326.075.08333.1167.20009.1083.30843zm-6.91663 2.47497c0-.45833-.375-.83333-.83334-.83333-.45833 0-.83333.375-.83333.83333v4.16667c0 .4583.375.8333.83333.8333.45834 0 .83334-.375.83334-.8333zm3.33333 0c0-.45833-.375-.83333-.8333-.83333-.45837 0-.83337.375-.83337.83333v4.16667c0 .4583.375.8333.83337.8333.4583 0 .8333-.375.8333-.8333z" fill="#ccc7c7"/></svg>

<svg width="17" height="18" viewBox="0 0 17 18" fill="none" xmlns="http://www.w3.org/2000/svg">
<path d="M16.8888 4.20833C16.8888 4.66917 16.5155 5.04167 16.0555 5.04167H1.0555C0.595501 5.04167 0.222168 4.66917 0.222168 4.20833C0.222168 3.7475 0.595501 3.375 1.0555 3.375H4.02135C4.38052 3.375 4.698 3.1466 4.81216 2.80493L5.07548 2.01493C5.30298 1.33327 5.93884 0.875 6.65634 0.875H10.4555C11.1739 0.875 11.8097 1.33329 12.0363 2.01412L12.2997 2.80575C12.413 3.14575 12.7313 3.375 13.0905 3.375H16.0555C16.5155 3.375 16.8888 3.7475 16.8888 4.20833ZM14.6388 6.73336L14.1305 14.4C14.0222 15.9333 12.7388 17.125 11.2138 17.125H5.89717C4.37217 17.125 3.08883 15.9333 2.9805 14.4083L2.47218 6.73336C2.46385 6.62502 2.50552 6.50826 2.58052 6.42493C2.66385 6.34159 2.77218 6.29167 2.88884 6.29167H14.2222C14.3388 6.29167 14.4472 6.34159 14.5305 6.42493C14.6055 6.50826 14.6472 6.62502 14.6388 6.73336ZM7.72217 9.20833C7.72217 8.75 7.34717 8.375 6.88883 8.375C6.4305 8.375 6.0555 8.75 6.0555 9.20833V13.375C6.0555 13.8333 6.4305 14.2083 6.88883 14.2083C7.34717 14.2083 7.72217 13.8333 7.72217 13.375V9.20833ZM11.0555 9.20833C11.0555 8.75 10.6805 8.375 10.2222 8.375C9.76383 8.375 9.38883 8.75 9.38883 9.20833V13.375C9.38883 13.8333 9.76383 14.2083 10.2222 14.2083C10.6805 14.2083 11.0555 13.8333 11.0555 13.375V9.20833Z" fill="#CCC7C7"/>
</svg>
